!!!!SEGMENT: Distler_Jahrkreis_15_O-Mensch-bewein-dein-Suende-gross.krn
!!!COM: Distler, Hugo
!!!CDT: 1908-1942
!!!OPR@@DE: Der Jahrkreis
!!!OPR@EN: The Year Cycle
!!!OTL@@DE: O Mensch, bewein dein' Suende gross
!!!OTL@EN: 	O mankind, mourn your great sins
!!!OPS: 5
!!!ONM: 15
**kern	**text	**kern	**text	**kern	**text
*part3	*part3	*part2	*part2	*part1	*part1
*staff3	*staff3	*staff2	*staff2	*staff1	*staff1
*Ialto	*	*Isoprn	*	*Isoprn	*
*clefG2	*	*clefG2	*	*clefG2	*
*k[b-]	*	*k[b-]	*	*k[b-]	*
*MM120	*	*MM120	*	*MM120	*
*M4/4	*	*M4/4	*	*M4/4	*
=1	=1	=1	=1	=1	=1
1r	.	4c	O	1r	.
.	.	2c	Mensch,	.	.
.	.	4d	be-	.	.
=2	=2	=2	=2	=2	=2
4G	O	4e	wein	2r	.
2G	Mensch,	4c	dein'	.	.
.	.	(4e	Suen-	4r	.
4A	be-	[4f	.	4f	O
=3	=3	=3	=3	=3	=3
(4.B-	wein	8fL]	.	2f	Mensch,
.	.	8eJ)	.	.	.
.	.	4d	de	.	.
8A)	.	.	.	.	.
4c	dein'	4e,	gross,	4g	be-
4B-	Suen-	8g	da-	([4a	wein
.	.	8g	rum	.	.
=4	=4	=4	=4	=4	=4
4A	de	(4.f	Chri-	8aL]	.
.	.	.	.	8gJ)	.
4.d	gross,	.	.	4f	dein'
.	.	8e)	.	.	.
.	.	4d	stus	4a	Suen-
8d	da-	.	.	.	.
4c	rum	4d	sein's	4b-	de
!!LO:LB:g=original
=5	=5	=5	=5	=5	=5
4B-	Chri-	(4e	Va-	4.cc,	gross,
8B-	stus	4f	.	.	.
8A	sein's	.	.	8cc	da-
(8GL	Va-	4.g	.	4b-	rum
8AJ)	.	.	.	.	.
4B-	ters	.	.	[4a	Chri-
.	.	8f	.	.	.
=6	=6	=6	=6	=6	=6
4c,	Schoss	4e	.	8a]	.
.	.	.	.	8g	stus
(4.f	aeu-	2d)	.	4f	sein's
.	.	.	.	4a	Va-
8e	.	.	.	.	.
4d)	.	4d	ters	4b-	ters
=7	=7	=7	=7	=7	=7
4c,	ssert,	4e,	Schoss	4cc,	Schoss
(4.g	aeu-	2b-	aeu-	2dd	aeu-
8f	.	.	.	.	.
4e)	.	[4a	ssert	4cc	ssert
=8	=8	=8	=8	=8	=8
8d	ssert	8a]	.	4b-	und
8e	und	8a	und	.	.
2f	kam	4a	kam	2a	kam
.	.	4g	auf	.	.
4d	auf	([4f	Er-	4b-	auf
!!LO:LB:g=original
=9	=9	=9	=9	=9	=9
2c	Er-	4f]	.	2g	Er-
.	.	4e)	.	.	.
2f	den.	2f	den.	2f	den
=10:|!	=10	=10:|!	=10	=10:|!	=10
4A	Den	4f	Den	1r	.
4d	To-	4f.	To-	.	.
4c	ten	.	.	.	.
.	.	8e	ten	.	.
[4B-	er	4d	er	.	.
=11	=11	=11	=11	=11	=11
8B-]	.	4c	das	4r	.
8A	das	.	.	.	.
2B-	Le-	2d	Le-	4ff	____und
.	.	.	.	4ff	legt
4B-	ben	4d	ben	4ff	da-
=12	=12	=12	=12	=12	=12
4c	gab,	4A,	gab	2ee	bei
4r	.	4a	und	.	.
2r	.	8a	legt	2cc	all'
.	.	8a	da-	.	.
.	.	8g	bei	.	.
.	.	8e	all'	.	.
!!LO:LB:g=original
=13	=13	=13	=13	=13	=13
2r	.	8a	Krank-	4dd	Krank-
.	.	8a	heit	.	.
.	.	2a,	ab,	4dd	heit
4r	.	.	.	4cc,	ab,
[4d	___bis	[4f	bis	[4a	bis
=14	=14	=14	=14	=14	=14
8d]	.	8f]	.	8a]	.
8c	sich	8g	sich	8cc	sich
4B-	die	4a	die	4dd	die
2c	Zeit	2g	Zeit	2cc	Zeit
=15	=15	=15	=15	=15	=15
4d	her-	4f	her-	4a	her-
2G	draen-	(4d	draen-	2b-	draen-
.	.	4e)	.	.	.
4d	ge,	4f#	ge,	4a	ge
=16	=16	=16	=16	=16	=16
1r	.	4r	.	4r	.
.	.	4.e	dass	4g	dass
.	.	.	.	4a	er
.	.	8fn	er	.	.
.	.	4g	fuer	4b-	fuer
!!LO:LB:g=original
=17	=17	=17	=17	=17	=17
4r	.	4f	uns	4.cc	uns
4c	dass	4e	ge-	.	.
.	.	.	.	8b-	ge-
4d	er	(8dL	op-	4a	op-
.	.	8cJ)	.	.	.
4e	fuer	4B-	fert	4a	fert
=18	=18	=18	=18	=18	=18
4f	uns	4c,	wuerd',	2g	wuerd',
4e	ge-	4c	trug	.	.
4d	op-	8d	uns-	2r	.
.	.	8e	rer	.	.
4d	fert	4f	Suen-	.	.
=19	=19	=19	=19	=19	=19
2c	wuerd',	4f	den	4r	.
.	.	8e	schwe-	4cc	trug
.	.	8e	re	.	.
2r	.	4a,	Buerd'	8dd	uns-
.	.	.	.	8ee	rer
.	.	[4a	wohl	[4ff	Suen-
=20	=20	=20	=20	=20	=20
4r	.	8a]	.	4ff]	.
.	.	8a	an	.	.
4c	trug	4g	dem	4ee	den
4d	uns-	(2b-	Kreu-	4dd	schwe-
4e	rer	.	.	4dd	re
!!LO:LB:g=original
=21	=21	=21	=21	=21	=21
4f	Suen-	4a)	.	2cc,	Buerd'
4e	den	4g	ze	.	.
4d	schwe-	([2f	lan-	2f	wohl
4d	re	.	.	.	.
=22	=22	=22	=22	=22	=22
4c,	Buerd'	4f]	.	4g	an
4A	wohl	8eL	.	4a	dem
.	.	8dJ	.	.	.
8A	an	4e	.	(4b-	Kreu-
8G	dem	.	.	.	.
([4d	Kreu-	[4f	.	[4a	.
=23	=23	=23	=23	=23	=23
8dL]	.	8fL]	.	8aL]	.
8eJ)	.	8g	.	8gJ)	.
4f	ze	8a	.	4f	ze
.	.	8b-J	.	.	.
(4f	lan-	2cc)	.	2g	lan-
4e)	.	.	.	.	.
=24	=24	=24	=24	=24	=24
2f	ge.	2cc	ge.	2a	ge.
2r	.	2r	.	2r	.
==	==	==	==	==	==
*-	*-	*-	*-	*-	*-
!!!YOR: Bärenreiter-Ausgabe 676
!!!YOY: 1933
!!!EFL: 15/52
!!!URL-github: https://github.com/LucasHofmann/distler/blob/main/Jahrkreis/Distler_Jahrkreis_15_O-Mensch-bewein-dein-Suende-gross.krn
!!!URL-pdf: https://imslp.eu/files/imglnks/euimg/7/7d/IMSLP834545-PMLP518834-5-jahrkreis-EA--original-paper-600dpi.pdf#page=30 First edition, Kassel: Bärenreiter, 1933. Plate BA 676.
!!!URL-imslp: https://imslp.org/wiki/Der_Jahrkreis,_Op.5_(Distler,_Hugo)#IMSLP834545
!!!URL-youtube: https://www.youtube.com/watch?v=SwFadHrhPWQ Ensemble Nobiles
!!!system-decoration: [(s1,s2,s3)]
!!!ENC: Lucas Hofmann
!!!END: 2023/10/27
!!!title: @{OPR@@DE}, Op. @{OPS}, Nr. @{ONM}. <i>@{OTL@@DE}</i>
